core/assets/icons/eye.crossed_out.svg

<svg width="24" height="24" viewBox="0 0 24 24" xmlns="http://www.w3.org/2000/svg"><g id="eye=crossed-out"><path id="Vector" d="M17.8819 19.297C16.1231 20.4126 14.0826 21.0033 11.9999 21C6.60791 21 2.12191 17.12 1.18091 12C1.61094 9.67072 2.78254 7.5429 4.52091 5.93401L1.39191 2.80801L2.80691 1.39301L22.6059 21.193L21.1909 22.607L17.8809 19.297H17.8819ZM5.93491 7.35001C4.57591 8.5856 3.62923 10.2088 3.22291 12C3.5352 13.3665 4.16217 14.6411 5.05391 15.7226C5.94565 16.804 7.07753 17.6624 8.35946 18.2293C9.64139 18.7962 11.038 19.0561 12.438 18.9881C13.838 18.9202 15.2029 18.5264 16.4239 17.838L14.3959 15.81C13.5326 16.3538 12.5101 16.5881 11.4961 16.4744C10.4822 16.3608 9.53695 15.9059 8.81548 15.1844C8.09401 14.463 7.63914 13.5177 7.52547 12.5038C7.4118 11.4898 7.64609 10.4673 8.18991 9.60401L5.93491 7.35001ZM12.9139 14.328L9.67191 11.086C9.49397 11.5389 9.4521 12.034 9.55141 12.5104C9.65073 12.9867 9.88693 13.4238 10.231 13.7679C10.5751 14.112 11.0122 14.3482 11.4886 14.4475C11.965 14.5468 12.46 14.5049 12.9129 14.327L12.9139 14.328ZM20.8069 16.592L19.3759 15.162C20.0444 14.2093 20.5203 13.1352 20.7769 12C20.5051 10.8097 19.9942 9.68715 19.2751 8.7005C18.5559 7.71385 17.6437 6.88373 16.5938 6.26061C15.5439 5.63749 14.3782 5.23437 13.1676 5.07577C11.9571 4.91717 10.7269 5.00638 9.55191 5.33801L7.97391 3.76001C9.22091 3.27001 10.5799 3.00001 11.9999 3.00001C17.3919 3.00001 21.8779 6.88001 22.8189 12C22.5125 13.6657 21.8238 15.2376 20.8069 16.592V16.592ZM11.7229 7.50801C12.3594 7.46867 12.997 7.56507 13.5935 7.79082C14.1899 8.01657 14.7315 8.36652 15.1825 8.81746C15.6334 9.2684 15.9833 9.81003 16.2091 10.4065C16.4348 11.0029 16.5312 11.6405 16.4919 12.277L11.7219 7.50801H11.7229Z"/></g></svg>

<svg xmlns="http://www.w3.org/2000/svg" width="24" height="24" fill="none"><path fill="#191C22" d="M17.882 19.297A10.949 10.949 0 0 1 12 21c-5.392 0-9.878-3.88-10.82-9a10.982 10.982 0 0 1 3.34-6.066L1.393 2.808l1.415-1.415 19.799 19.8-1.415 1.414-3.31-3.31ZM5.935 7.35A8.965 8.965 0 0 0 3.223 12a9.005 9.005 0 0 0 13.2 5.838l-2.027-2.028A4.5 4.5 0 0 1 8.19 9.604L5.935 7.35Zm6.979 6.978-3.242-3.242a2.5 2.5 0 0 0 3.24 3.241l.002.001Zm7.893 2.264-1.431-1.43a8.934 8.934 0 0 0 1.4-3.162A9.005 9.005 0 0 0 9.553 5.338L7.974 3.76C9.22 3.27 10.58 3 12 3c5.392 0 9.878 3.88 10.819 9a10.946 10.946 0 0 1-2.012 4.592Zm-9.084-9.084a4.5 4.5 0 0 1 4.769 4.769l-4.77-4.769Z"/></svg>
